icon-themes/sifr_svg/cmd/lc_zoomprevious.svg

<svg viewBox="0 0 24 24" xmlns="http://www.w3.org/2000/svg"><path d="m4.59375 3c-.8836 0-1.59375.73199-1.59375 1.625v14.75c0 .89301.71015 1.625 1.59375 1.625h14.8125c.8836 0 1.59375-.73199 1.59375-1.625v-14.75c0-.89301-.71015-1.625-1.59375-1.625zm10.40625 2h.585938.414062v1c0 .25689-.12983.52846-.3125.71875l-6.6875 5.28125 6.6875 5.28125c.18267.19029.3125.97564.3125.71875v1h-.414062-.585938c.30945 0-.55232-.0903-.75-.28125l-7.25-5.849609v-1.783203l7.25-5.804688c.19768-.19095.44055-.28125.75-.28125z" fill="#555753"/></svg>

<svg xmlns="http://www.w3.org/2000/svg" viewBox="0 0 24 24">
  <path
     style="fill:#555753"
     d="M 4.59375 3 C 3.71015 3 3 3.73199 3 4.625 L 3 19.375 C 3 20.26801 3.71015 21 4.59375 21 L 19.40625 21 C 20.28985 21 21 20.26801 21 19.375 L 21 4.625 C 21 3.73199 20.28985 3 19.40625 3 L 4.59375 3 z M 15 5 L 15.585938 5 L 16 5 L 16 6 C 16 6.25689 15.87017 6.52846 15.6875 6.71875 L 9 12 L 15.6875 17.28125 C 15.87017 17.47154 16 18.25689 16 18 L 16 19 L 15.585938 19 L 15 19 C 15.30945 19 14.44768 18.9097 14.25 18.71875 L 7 12.869141 L 7 11.085938 L 14.25 5.28125 C 14.44768 5.0903 14.69055 5 15 5 z "
     />
</svg>
